svg/plus_one.svg

<svg xmlns="http://www.w3.org/2000/svg" viewBox="0 0 24 24"><path d="M10 8v4h4v2h-4v4H8v-4H4v-2h4V8zm4.5-1.92L19 5v13h-2V7.4l-2.5.5z"/></svg>

<?xml version="1.0" encoding="UTF-8"?><!DOCTYPE svg PUBLIC "-//W3C//DTD SVG 1.1//EN" "http://www.w3.org/Graphics/SVG/1.1/DTD/svg11.dtd"><svg xmlns="http://www.w3.org/2000/svg" xmlns:xlink="http://www.w3.org/1999/xlink" version="1.1" id="mdi-plus-one" width="24" height="24" viewBox="0 0 24 24"><path d="M10,8V12H14V14H10V18H8V14H4V12H8V8H10M14.5,6.08L19,5V18H17V7.4L14.5,7.9V6.08Z" /></svg>
